static/logos/ada-wordmark-color.svg

<svg width="100" height="34" viewBox="0 0 100 34" fill="none" xmlns="http://www.w3.org/2000/svg">
<path d="M97.0748 19.0789V18.6216H91.9156C89.1719 18.6216 87.3816 19.8876 87.3816 21.9614C87.3816 23.7905 88.8797 24.9517 91.2195 24.9517C94.9166 24.9517 97.0739 22.7255 97.0739 19.0789H97.0748ZM99.9992 15.6313V27.0643H97.0748V24.0002C96.0855 26.041 93.635 27.341 90.7807 27.341C86.9059 27.341 84.3816 25.2352 84.3816 21.9973C84.3816 18.6196 87.271 16.4692 91.7341 16.4692H95.902C96.7147 16.4692 97.0748 16.0827 97.0748 15.5196C97.0748 13.0925 95.2816 11.4391 92.135 11.4391C89.4263 11.4391 87.3098 13.0585 87.1632 14.9925H84.3816C84.7117 11.5711 88.0758 9.04872 92.2079 9.04872C97.0011 9.05455 99.9992 11.6895 99.9992 15.6293V15.6313ZM77.5846 18.1983C77.5846 14.1886 75.169 11.5886 71.4749 11.5886C67.7807 11.5886 65.3302 14.1895 65.3302 18.1983C65.3302 22.208 67.7671 24.8138 71.4749 24.8138C75.1826 24.8138 77.5846 22.1992 77.5846 18.1983ZM62.3321 18.1983C62.3321 13.0284 65.4768 9.05649 71.2176 9.05649C73.8176 9.05649 76.2302 10.3225 77.3273 12.2148V0.155518H80.2545V27.0633H77.3273V24.1439C76.2438 26.0789 73.8069 27.342 71.2176 27.342C65.4768 27.342 62.3321 23.3672 62.3321 18.1973V18.1983ZM55.7059 19.0798V18.6226H50.5603C47.8166 18.6226 46.0244 19.8886 46.0244 21.9624C46.0244 23.7915 47.5244 24.9526 49.8671 24.9526C53.5389 24.9526 55.7059 22.7264 55.7059 19.0798ZM58.6331 15.6313V27.0643H55.7059V24.0002C54.7195 26.041 52.269 27.341 49.4147 27.341C45.5389 27.341 43.0156 25.2352 43.0156 21.9973C43.0156 18.6196 45.9049 16.4692 50.3651 16.4692H54.536C55.3486 16.4692 55.7059 16.0827 55.7059 15.5196C55.7059 13.0925 53.9156 11.4391 50.769 11.4391C48.0603 11.4391 45.9399 13.0585 45.7943 14.9925H43.0156C43.3428 11.5711 46.7088 9.04872 50.8418 9.04872C55.6321 9.05455 58.6331 11.6895 58.6331 15.6293V15.6313Z" fill="#171A1E"/>
<path d="M8.39903 27.4465C8.16503 27.4729 7.94645 27.5764 7.77767 27.7407C7.61154 27.9027 7.50629 28.1169 7.47961 28.3475C7.47961 28.3621 7.47961 28.3766 7.47767 28.3922V28.3776C7.4752 28.4047 7.47391 28.4319 7.47379 28.4592V31.5213C7.47395 31.6561 7.44667 31.7896 7.39359 31.9137C7.34051 32.0377 7.26276 32.1496 7.16505 32.2427C6.96634 32.4357 6.6994 32.5425 6.42233 32.5397H1.05049C0.910617 32.5396 0.77211 32.5123 0.642718 32.4591C0.453822 32.3825 0.29149 32.2522 0.175728 32.0844C0.0619182 31.9186 0.000682473 31.7224 0 31.5213V15.9436C0.00291262 11.0194 2.32233 6.62416 5.95728 3.72998L5.96019 3.72707C6.02718 3.67464 6.0932 3.62221 6.16019 3.57173L6.17184 3.56202C6.30583 3.45911 6.44175 3.35814 6.57961 3.26105L6.61456 3.23484L6.79903 3.10474L6.81845 3.09115C6.88641 3.04357 6.95437 2.99794 7.0233 2.95134L7.06019 2.92707L7.22913 2.81348L7.27961 2.78144C7.45049 2.67173 7.6233 2.56493 7.79806 2.46105L7.80583 2.45619C7.90874 2.39406 8.01456 2.33289 8.12233 2.27367L8.13107 2.26882C8.23786 2.20862 8.3466 2.1494 8.45534 2.09115L8.45922 2.0892C9.91563 1.31604 11.48 0.766516 13.1 0.459109H13.1049L13.2796 0.42707L13.301 0.423187L13.4641 0.39406L13.4981 0.389206L13.6534 0.364934L13.6981 0.358138L13.8437 0.336779L13.8981 0.329012C13.9443 0.322167 13.9906 0.315694 14.0369 0.309594L14.0971 0.301827L14.2311 0.285322L14.299 0.277555L14.4252 0.262992L14.501 0.255225L14.6204 0.243575L14.7019 0.235808L14.8184 0.226099L14.9058 0.219303L15.0184 0.209594L15.1107 0.203769L15.2184 0.196973L15.3175 0.191148L15.4204 0.186293L15.5262 0.181439L15.6233 0.177555L15.7398 0.173672L15.8272 0.17173L15.9602 0.167847H16.2369C25.2078 0.167847 32.4699 7.23192 32.4728 15.9465V31.5213C32.4731 31.6561 32.446 31.7895 32.3931 31.9135C32.3402 32.0376 32.2626 32.1495 32.165 32.2427C31.9663 32.4357 31.6994 32.5425 31.4223 32.5397H26.0505C25.7728 32.5397 25.5058 32.4329 25.3087 32.2417C25.2117 32.1483 25.1345 32.0364 25.0814 31.9127C25.0283 31.789 25.0007 31.6559 25 31.5213V28.4562C25 28.1863 24.8883 27.9271 24.6913 27.7359C24.4921 27.5439 24.2261 27.437 23.9495 27.4378H16.2369L8.39903 27.4456V27.4465ZM25.001 15.2931C25.001 10.5912 21.0767 6.7795 16.2369 6.7795C15.4989 6.77971 14.7637 6.87002 14.0476 7.04843C12.7442 7.37356 11.5322 7.99185 10.5039 8.8562C9.55741 9.64881 8.79449 10.6376 8.26796 11.7543C7.74658 12.8614 7.4767 14.0702 7.47767 15.2941C7.47767 19.9961 11.3971 23.8067 16.235 23.8067C21.0767 23.8067 25 19.996 25 15.2931H25.001Z" fill="#171A1E"/>
</svg>

<svg xmlns="http://www.w3.org/2000/svg" width="188.235" height="64" fill="none" viewBox="0 0 100 34"><path fill="#171A1E" d="M97.075 19.079v-.457h-5.16c-2.743 0-4.533 1.266-4.533 3.34 0 1.829 1.498 2.99 3.837 2.99 3.698 0 5.855-2.227 5.855-5.873Zm2.924-3.448v11.433h-2.924V24c-.99 2.041-3.44 3.341-6.294 3.341-3.875 0-6.4-2.106-6.4-5.344 0-3.377 2.89-5.528 7.353-5.528h4.168c.813 0 1.173-.386 1.173-.95 0-2.427-1.793-4.08-4.94-4.08-2.709 0-4.825 1.62-4.972 3.553h-2.781c.33-3.42 3.694-5.943 7.826-5.943 4.793.006 7.791 2.64 7.791 6.58v.002Zm-22.414 2.567c0-4.01-2.416-6.61-6.11-6.61-3.694 0-6.145 2.602-6.145 6.61 0 4.01 2.437 6.616 6.145 6.616 3.708 0 6.11-2.615 6.11-6.616Zm-15.253 0c0-5.17 3.145-9.142 8.886-9.142 2.6 0 5.012 1.267 6.11 3.159V.155h2.926v26.908h-2.927v-2.92c-1.083 1.936-3.52 3.199-6.11 3.199-5.74 0-8.885-3.975-8.885-9.145v.001Zm-6.626.882v-.457H50.56c-2.743 0-4.536 1.266-4.536 3.34 0 1.828 1.5 2.99 3.843 2.99 3.672 0 5.839-2.227 5.839-5.873Zm2.927-3.449v11.433h-2.927V24c-.987 2.041-3.437 3.341-6.291 3.341-3.876 0-6.4-2.106-6.4-5.344 0-3.377 2.89-5.528 7.35-5.528h4.171c.813 0 1.17-.386 1.17-.95 0-2.427-1.79-4.08-4.937-4.08-2.709 0-4.83 1.62-4.975 3.553h-2.778c.327-3.42 3.693-5.943 7.826-5.943 4.79.006 7.791 2.64 7.791 6.58v.002ZM8.399 27.447c-.234.026-.453.13-.621.294a1.01 1.01 0 0 0-.298.607c0 .014 0 .029-.002.044v-.014a.944.944 0 0 0-.004.081v3.062a.995.995 0 0 1-.309.722 1.05 1.05 0 0 1-.743.297H1.05a1.074 1.074 0 0 1-.874-.456A1.001 1.001 0 0 1 0 31.521V15.944c.003-4.925 2.322-9.32 5.957-12.214l.003-.003c.067-.052.133-.105.2-.155l.012-.01c.134-.103.27-.204.408-.3l.035-.027.184-.13.02-.014.204-.14.037-.024.17-.114.05-.032c.17-.11.343-.216.518-.32l.008-.005c.103-.062.209-.123.316-.182l.01-.005c.106-.06.215-.12.323-.178l.004-.002A16.43 16.43 0 0 1 13.1.46h.005l.175-.032.021-.004.163-.029.034-.005.155-.024.045-.007.146-.021.054-.008a8.71 8.71 0 0 1 .139-.02l.06-.007.134-.017.068-.007.126-.015.076-.008.12-.011.08-.008.117-.01.088-.007.112-.01.093-.005.107-.007.1-.006.102-.005.106-.005.097-.003.117-.004.087-.002.133-.004h.277c8.97 0 16.233 7.064 16.236 15.779V31.52a.994.994 0 0 1-.308.722 1.05 1.05 0 0 1-.743.297H26.05c-.277 0-.544-.107-.741-.298a1.01 1.01 0 0 1-.309-.72v-3.066c0-.27-.112-.529-.309-.72a1.064 1.064 0 0 0-.741-.298h-7.713l-7.838.008Zm16.602-12.154c0-4.702-3.924-8.513-8.764-8.513-.738 0-1.473.09-2.19.268a8.828 8.828 0 0 0-3.543 1.808 8.519 8.519 0 0 0-2.236 2.898 8.293 8.293 0 0 0-.79 3.54c0 4.702 3.92 8.513 8.757 8.513 4.842 0 8.765-3.811 8.765-8.514h.001Z"/></svg>
